icons/numix/16x16/mimetypes/text-x-copying.svg

<?xml version="1.0" encoding="UTF-8" standalone="no"?>
<svg
   xmlns:dc="http://purl.org/dc/elements/1.1/"
   xmlns:cc="http://creativecommons.org/ns#"
   xmlns:rdf="http://www.w3.org/1999/02/22-rdf-syntax-ns#"
   xmlns:svg="http://www.w3.org/2000/svg"
   xmlns="http://www.w3.org/2000/svg"
   xmlns:sodipodi="http://sodipodi.sourceforge.net/DTD/sodipodi-0.dtd"
   xmlns:inkscape="http://www.inkscape.org/namespaces/inkscape"
   width="16"
   height="16"
   viewBox="0 0 16 16"
   id="svg2"
   version="1.1"
   inkscape:version="0.48.5 r10040"
   sodipodi:docname="text-x-copying.svg">
  <metadata
     id="metadata20">
    <rdf:RDF>
      <cc:Work
         rdf:about="">
        <dc:format>image/svg+xml</dc:format>
        <dc:type
           rdf:resource="http://purl.org/dc/dcmitype/StillImage" />
      </cc:Work>
    </rdf:RDF>
  </metadata>
  <defs
     id="defs18" />
  <sodipodi:namedview
     pagecolor="#ffffff"
     bordercolor="#666666"
     borderopacity="1"
     objecttolerance="10"
     gridtolerance="10"
     guidetolerance="10"
     inkscape:pageopacity="0"
     inkscape:pageshadow="2"
     inkscape:window-width="1280"
     inkscape:window-height="970"
     id="namedview16"
     showgrid="true"
     inkscape:zoom="20.85965"
     inkscape:cx="-2.9028026"
     inkscape:cy="10.768601"
     inkscape:window-x="0"
     inkscape:window-y="0"
     inkscape:window-maximized="1"
     inkscape:current-layer="svg2">
    <inkscape:grid
       type="xygrid"
       id="grid3008" />
  </sodipodi:namedview>
  <path
     style="fill:#dcdcdc;fill-opacity:1"
     d="M 2.667969,-4.462e-4 C 2.324219,-4.462e-4 2,0.3378118 2,0.6964465 L 2,15.303108 C 2,15.641365 2.34375,16 2.667969,16 l 10.664062,0 C 13.65625,16 14,15.641365 14,15.303108 L 14,3.9995536 9.9999999,-4.462e-4 z"
     id="path4"
     inkscape:connector-curvature="0"
     sodipodi:nodetypes="ssssssccs" />
  <g
     style="fill:#888888"
     id="g10"
     transform="matrix(1.2946912,0,0,1.2946912,-2.3575296,-2.5537985)">
    <path
       d="m 8,5.332031 c -1.839844,0 -3.332031,1.492188 -3.332031,3.335938 C 4.667969,10.507812 6.160156,12 8,12 9.839844,12 11.332031,10.507812 11.332031,8.667969 11.332031,6.824219 9.839844,5.332031 8,5.332031 z M 8,6 c 1.472656,0 2.667969,1.195312 2.667969,2.667969 0,1.472656 -1.195313,2.664062 -2.667969,2.664062 -1.472656,0 -2.667969,-1.191406 -2.667969,-2.664062 C 5.332031,7.195312 6.527344,6 8,6 z"
       id="path12"
       inkscape:connector-curvature="0" />
    <path
       d="m 8.050781,7.351562 c -0.347656,0 -0.617187,0.117188 -0.808593,0.351563 C 7.050781,7.9375 6.953125,8.261719 6.953125,8.679688 c 0,0.867187 0.367187,1.300781 1.097656,1.300781 0.308594,0 0.679688,-0.070313 1.117188,-0.207031 l 0,0.695312 c -0.359375,0.132812 -0.757813,0.199219 -1.203125,0.199219 -0.636719,0 -1.121094,-0.171875 -1.460938,-0.515625 C 6.167969,9.808594 6,9.316406 6,8.671875 6,8.269531 6.082031,7.914062 6.25,7.613281 6.414062,7.304688 6.652344,7.074219 6.960938,6.910156 7.273438,6.75 7.636719,6.667969 8.050781,6.667969 c 0.425781,0 0.855469,0.089843 1.28125,0.273437 L 9.035156,7.613281 C 8.871094,7.542969 8.707031,7.480469 8.539062,7.429688 8.375,7.378906 8.210938,7.351562 8.050781,7.351562"
       id="path14"
       inkscape:connector-curvature="0" />
  </g>
  <path
     style="fill:#000000;fill-opacity:0.19599998"
     d="m 10.583223,3.3315846 0.0154,0.01953 0.04005,-0.01953 z m 0.02978,0.667969 3.387,3.664062 0,-3.664062 z"
     id="path6"
     inkscape:connector-curvature="0"
     sodipodi:nodetypes="cccccccc" />
  <path
     style="fill:#ffffff;fill-opacity:0.39200003"
     d="m 9.9999999,-4.462e-4 3.9963961,3.9999998 -3.383784,0 c -0.299099,0 -0.6126121,-0.317117 -0.6126121,-0.616216 z"
     id="path8"
     inkscape:connector-curvature="0"
     sodipodi:nodetypes="ccssc" />
</svg>

<svg width="16" xmlns="http://www.w3.org/2000/svg" height="16" viewBox="0 0 16 16" xmlns:xlink="http://www.w3.org/1999/xlink">
<path style="fill:#dcdcdc" d="M 2.667969 0.332031 C 2.324219 0.332031 2 0.65625 2 1 L 2 15 C 2 15.324219 2.34375 15.667969 2.667969 15.667969 L 13.332031 15.667969 C 13.65625 15.667969 14 15.324219 14 15 L 14 4.667969 L 9.667969 0.332031 Z "/>
<path style="fill:#000;fill-opacity:.196" d="M 9.667969 4 L 9.6875 4.019531 L 9.738281 4 Z M 10.332031 4.667969 L 14 8.332031 L 14 4.667969 Z "/>
<path style="fill:#fff;fill-opacity:.392" d="M 9.667969 0.332031 L 14 4.667969 L 10.332031 4.667969 C 10.007812 4.667969 9.667969 4.324219 9.667969 4 Z "/>
<g style="fill:#888">
<path d="M 8 5.332031 C 6.160156 5.332031 4.667969 6.824219 4.667969 8.667969 C 4.667969 10.507812 6.160156 12 8 12 C 9.839844 12 11.332031 10.507812 11.332031 8.667969 C 11.332031 6.824219 9.839844 5.332031 8 5.332031 Z M 8 6 C 9.472656 6 10.667969 7.195312 10.667969 8.667969 C 10.667969 10.140625 9.472656 11.332031 8 11.332031 C 6.527344 11.332031 5.332031 10.140625 5.332031 8.667969 C 5.332031 7.195312 6.527344 6 8 6 Z "/>
<path d="M 8.050781 7.351562 C 7.703125 7.351562 7.433594 7.46875 7.242188 7.703125 C 7.050781 7.9375 6.953125 8.261719 6.953125 8.679688 C 6.953125 9.546875 7.320312 9.980469 8.050781 9.980469 C 8.359375 9.980469 8.730469 9.910156 9.167969 9.773438 L 9.167969 10.46875 C 8.808594 10.601562 8.410156 10.667969 7.964844 10.667969 C 7.328125 10.667969 6.84375 10.496094 6.503906 10.152344 C 6.167969 9.808594 6 9.316406 6 8.671875 C 6 8.269531 6.082031 7.914062 6.25 7.613281 C 6.414062 7.304688 6.652344 7.074219 6.960938 6.910156 C 7.273438 6.75 7.636719 6.667969 8.050781 6.667969 C 8.476562 6.667969 8.90625 6.757812 9.332031 6.941406 L 9.035156 7.613281 C 8.871094 7.542969 8.707031 7.480469 8.539062 7.429688 C 8.375 7.378906 8.210938 7.351562 8.050781 7.351562 "/>
</g>
</svg>
